X: 32373
T: Pipe On The Hob, The
R: jig
M: 6/8
K: Dmixolydian
|:ded cAG|F2D D3|EDE cAG|E2D D3|
dcB c2A|BAG A2G|EDE cBc|1 E2D D3:|2 E2D Dde||
|:f2d dB/^c/d|f2d dB/^c/d|edB c2d|ede age|
f2d dB/^c/d|f2d dB^c/d|ede a2g|ed^c d2e|
f2d dB/^c/d|f2d dB/^c/d|edB c2d|ede age|
f3 g3|agf g2e|fed eag|ed^c d2A||

